X: 5
T: Garrett Barry's
R: reel
M: 4/4
L: 1/8
K: Gmaj
|: ~G3B d2Bd | edBe dBAB | ~G3B d2BG | ABAG EGDE |
~G3B d2Bd | edBA GABd | edcB cdef | gedB AGBA :|:
~g3b afge|dBAB GABd|g2af gedg|eaag a2ga|
b2gb afge|dBAB GABd|edcB cdef|gedB AGBA:|


Tune 3434	Setting 16478

